public/assets/routes_avatar/taskResume.svg

<?xml version="1.0" encoding="UTF-8"?>
<svg width="60px" height="60px" viewBox="0 0 60 60" version="1.1" xmlns="http://www.w3.org/2000/svg" xmlns:xlink="http://www.w3.org/1999/xlink">
    <!-- Generator: Sketch 52.3 (67297) - http://www.bohemiancoding.com/sketch -->
    <title>taskResume</title>
    <desc>Created with Sketch.</desc>
    <g id="icon" stroke="none" stroke-width="1" fill="none" fill-rule="evenodd">
        <g id="taskResume">
            <circle id="Oval-Copy" fill="#49A7FF" cx="30" cy="30" r="30"></circle>
            <path d="M40.875,42.7500001 L19.125,42.7500001 C18.08998,42.7487603 17.2512397,41.91002 17.25,40.8750001 L17.25,27.3802501 L42.75,27.3802501 L42.75,40.8750001 C42.75,41.9085001 41.90925,42.7500001 40.875,42.7500001 M19.125,20.25 L21,20.25 L21,22.1250001 C21,22.7463204 21.5036797,23.2500001 22.125,23.2500001 C22.7463203,23.2500001 23.25,22.7463204 23.25,22.1250001 L23.25,20.25 L36.75,20.25 L36.75,22.1250001 C36.75,22.7463204 37.2536797,23.2500001 37.875,23.2500001 C38.4963203,23.2500001 39,22.7463204 39,22.1250001 L39,20.25 L40.875,20.25 C41.90925,20.25 42.75,21.0915 42.75,22.1250001 L42.75,25.1302501 L17.25,25.1302501 L17.25,22.1250001 C17.25,21.0915 18.09075,20.25 19.125,20.25 M40.875,18.0000001 L39,18.0000001 L39,16.125 C39,15.5036797 38.4963203,15 37.875,15 C37.2536797,15 36.75,15.5036797 36.75,16.125 L36.75,18.0000001 L23.25,18.0000001 L23.25,16.125 C23.25,15.7230762 23.0355762,15.3516833 22.6875,15.1507214 C22.3394238,14.9497595 21.9105762,14.9497595 21.5625,15.1507214 C21.2144238,15.3516833 21,15.7230762 21,16.125 L21,18.0000001 L19.125,18.0000001 C16.8478535,18.0024802 15.0024801,19.8478536 15,22.1250001 L15,40.8750001 C15,43.1497501 16.851,45.0000001 19.125,45.0000001 L40.875,45.0000001 C43.149,45.0000001 45,43.1497501 45,40.8750001 L45,22.1250001 C45,19.8502501 43.149,18.0000001 40.875,18.0000001 M20.25,33.0000001 L27.75,33.0000001 C28.1519238,33.0000001 28.5233167,32.7855763 28.7242786,32.4375001 C28.9252405,32.0894239 28.9252405,31.6605763 28.7242786,31.3125 C28.5233167,30.9644238 28.1519238,30.75 27.75,30.7500001 L20.25,30.7500001 C19.8480762,30.75 19.4766833,30.9644238 19.2757214,31.3125 C19.0747594,31.6605763 19.0747594,32.0894239 19.2757214,32.4375001 C19.4766833,32.7855763 19.8480762,33.0000001 20.25,33.0000001 M39.75,36.0000001 L20.25,36.0000001 C19.6286796,36.0000001 19.125,36.5036797 19.125,37.1250001 C19.125,37.7463204 19.6286796,38.2500001 20.25,38.2500001 L39.75,38.2500001 C40.3713204,38.2500001 40.875,37.7463204 40.875,37.1250001 C40.875,36.5036797 40.3713204,36.0000001 39.75,36.0000001" id="形状" fill="#FFFFFF" fill-rule="nonzero"></path>
        </g>
    </g>
</svg>

<svg width="60" height="60" xmlns="http://www.w3.org/2000/svg"><g fill="none" fill-rule="evenodd"><circle fill="#49A7FF" cx="30" cy="30" r="30"/><path d="M40.875 42.75h-21.75a1.877 1.877 0 0 1-1.875-1.875V27.38h25.5v13.495c0 1.034-.84 1.875-1.875 1.875m-21.75-22.5H21v1.875a1.125 1.125 0 0 0 2.25 0V20.25h13.5v1.875a1.125 1.125 0 0 0 2.25 0V20.25h1.875c1.034 0 1.875.841 1.875 1.875v3.005h-25.5v-3.005c0-1.034.84-1.875 1.875-1.875M40.875 18H39v-1.875a1.125 1.125 0 0 0-2.25 0V18h-13.5v-1.875a1.125 1.125 0 0 0-2.25 0V18h-1.875A4.13 4.13 0 0 0 15 22.125v18.75A4.13 4.13 0 0 0 19.125 45h21.75A4.13 4.13 0 0 0 45 40.875v-18.75A4.13 4.13 0 0 0 40.875 18M20.25 33h7.5a1.125 1.125 0 0 0 0-2.25h-7.5a1.125 1.125 0 1 0 0 2.25m19.5 3h-19.5a1.125 1.125 0 1 0 0 2.25h19.5a1.125 1.125 0 1 0 0-2.25" fill="#FFF" fill-rule="nonzero"/></g></svg>
